;FLAVOR:Marlin
;TIME:4121
;Filament used: 3.85163m
;Layer height: 0.2
;Generated with Cura_SteamEngine 3.6.0
M140 S60
M105
M190 S60
M104 S200
M105
M109 S200
M82 ;absolute extrusion mode
; Ender 3 Custom Start G-code
G28 ; Home all axes
G92 E0 ; Reset Extruder
G1 Z2.0 F3000 ; Move Z Axis up little to prevent scratching of Heat Bed
G1 X0.1 Y20 Z0.3 F5000.0 ; Move to start position
G1 X0.1 Y200.0 Z0.3 F1500.0 E15 ; Draw the first line
G1 X0.4 Y200.0 Z0.3 F5000.0 ; Move to side a little
G1 X0.4 Y20 Z0.3 F1500.0 E30 ; Draw the second line
G92 E0 ; Reset Extruder
G1 Z2.0 F3000 ; Move Z Axis up little to prevent scratching of Heat Bed
; End of custom start GCode
G92 E0
G1 F2400 E-5
;LAYER_COUNT:21
;LAYER:0
M107
M204 S5000
M205 X30 Y30
G0 F3600 X55.763 Y77.51 Z0.2
M204 S500
M205 X20 Y20
;TYPE:SKIRT
G1 F2400 E0
G1 F1800 X56.346 Y77.095 E0.0238
G1 X56.971 Y76.748 E0.04758
G1 X57.632 Y76.473 E0.07139
G1 X58.318 Y76.273 E0.09516
G1 X59.023 Y76.151 E0.11895
G1 X59.758 Y76.109 E0.14344
G1 X134.04 Y76.1 E2.61407
G1 X134.52 Y76.118 E2.63004
G1 X135.747 Y76.21 E2.67097
G1 X136.242 Y76.267 E2.68754
G1 X140.554 Y76.931 E2.83265
G1 X145.828 Y77.456 E3.00893
G1 X151.129 Y77.684 E3.18541
G1 X156.413 Y77.613 E3.36117
G1 X161.687 Y77.241 E3.53702
G1 X167.01 Y76.563 E3.71549
G1 X169.211 Y76.196 E3.78971
G1 X170.264 Y76.109 E3.82485
G1 X175.241 Y76.109 E3.99039
G1 X175.955 Y76.149 E4.01417
G1 X176.66 Y76.268 E4.03795
G1 X177.348 Y76.466 E4.06176
G1 X178.009 Y76.739 E4.08555
G1 X178.636 Y77.083 E4.10934
G1 X179.22 Y77.496 E4.13313
G1 X179.754 Y77.971 E4.1569
G1 X180.233 Y78.503 E4.18071
G1 X180.648 Y79.085 E4.20448
G1 X180.997 Y79.71 E4.22829
G1 X181.273 Y80.37 E4.25208
G1 X181.474 Y81.056 E4.27586
G1 X181.597 Y81.761 E4.29966
G1 X181.641 Y82.509 E4.32458
G1 X181.641 Y152.491 E6.65219
G1 X181.601 Y153.205 E6.67598
G1 X181.482 Y153.91 E6.69976
G1 X181.284 Y154.598 E6.72357
G1 X181.011 Y155.259 E6.74736
G1 X180.667 Y155.886 E6.77114
G1 X180.254 Y156.47 E6.79493
G1 X179.779 Y157.004 E6.81871
G1 X179.247 Y157.483 E6.84252
G1 X178.665 Y157.898 E6.86629
G1 X178.04 Y158.247 E6.8901
G1 X177.38 Y158.523 E6.91389
G1 X176.694 Y158.724 E6.93767
G1 X175.989 Y158.847 E6.96147
G1 X175.238 Y158.891 E6.98649
G1 X170.247 Y158.889 E7.15249
G1 X169.188 Y158.8 E7.18784
G1 X167.125 Y158.453 E7.25742
G1 X161.803 Y157.769 E7.43589
G1 X156.513 Y157.391 E7.61228
G1 X151.23 Y157.314 E7.78801
G1 X145.949 Y157.535 E7.96381
G1 X140.663 Y158.057 E8.14048
G1 X135.715 Y158.816 E8.30698
G1 X134.745 Y158.89 E8.33933
G1 X59.759 Y158.891 E10.83338
G1 X59.045 Y158.851 E10.85716
G1 X58.34 Y158.732 E10.88094
G1 X57.652 Y158.534 E10.90475
G1 X56.991 Y158.261 E10.92854
G1 X56.364 Y157.917 E10.95233
G1 X55.78 Y157.504 E10.97612
G1 X55.246 Y157.029 E10.99989
G1 X54.768 Y156.497 E11.02368
G1 X54.352 Y155.915 E11.04747
G1 X54.003 Y155.29 E11.07128
G1 X53.727 Y154.63 E11.09507
G1 X53.526 Y153.944 E11.11885
G1 X53.403 Y153.239 E11.14265
G1 X53.359 Y152.487 E11.16771
G1 X53.362 Y147.476 E11.33437
G1 X53.385 Y146.936 E11.35235
G1 X53.621 Y144.165 E11.44485
G1 X53.845 Y138.843 E11.62201
G1 X53.77 Y133.547 E11.79818
G1 X53.376 Y127.947 E11.98489
G1 X53.36 Y127.498 E11.99984
G1 X53.36 Y107.512 E12.66457
G1 X53.376 Y107.059 E12.67965
G1 X53.772 Y101.479 E12.86571
G1 X53.845 Y96.2 E13.04131
G1 X53.617 Y90.856 E13.21921
G1 X53.496 Y89.43 E13.26681
G1 X53.489 Y89.347 E13.26958
G1 X53.366 Y87.624 E13.32703
G1 X53.35 Y87.156 E13.34261
G1 X53.359 Y82.497 E13.49757
G1 X53.4 Y81.783 E13.52135
G1 X53.521 Y81.078 E13.54514
G1 X53.72 Y80.39 E13.56897
G1 X53.994 Y79.73 E13.59273
G1 X54.34 Y79.104 E13.61652
G1 X54.754 Y78.52 E13.64033
G1 X55.23 Y77.987 E13.6641
G1 X55.763 Y77.51 E13.68789
M204 S5000
M205 X30 Y30
G0 F3600 X56.152 Y77.714
M204 S500
M205 X20 Y20
G1 F1800 X56.728 Y77.331 E13.7109
G1 X57.345 Y77.016 E13.73394
G1 X57.994 Y76.774 E13.75698
G1 X58.667 Y76.609 E13.78002
G1 X59.354 Y76.523 E13.80305
G1 X59.758 Y76.509 E13.8165
G1 X134.04 Y76.5 E16.28713
G1 X134.49 Y76.517 E16.3021
G1 X135.717 Y76.609 E16.34303
G1 X136.181 Y76.662 E16.35856
G1 X140.51 Y77.328 E16.50424
G1 X145.806 Y77.856 E16.68126
G1 X151.117 Y78.085 E16.85807
G1 X156.429 Y78.012 E17.03476
G1 X161.732 Y77.639 E17.21158
G1 X167.073 Y76.959 E17.39065
G1 X169.277 Y76.591 E17.46497
G1 X170.264 Y76.509 E17.49791
G1 X175.241 Y76.509 E17.66345
G1 X175.932 Y76.549 E17.68647
G1 X176.615 Y76.668 E17.70953
G1 X177.278 Y76.866 E17.73254
G1 X177.915 Y77.138 E17.75558
G1 X178.516 Y77.482 E17.77861
G1 X179.074 Y77.893 E17.80166
G1 X179.58 Y78.365 E17.82468
G1 X180.029 Y78.893 E17.84773
G1 X180.414 Y79.468 E17.87074
G1 X180.729 Y80.085 E17.89379
G1 X180.972 Y80.733 E17.9168
G1 X181.139 Y81.406 E17.93987
G1 X181.227 Y82.092 E17.96287
G1 X181.241 Y82.509 E17.97675
G1 X181.241 Y152.491 E20.30436
G1 X181.201 Y153.182 E20.32738
G1 X181.082 Y153.865 E20.35044
G1 X180.884 Y154.528 E20.37345
G1 X180.612 Y155.165 E20.39649
G1 X180.268 Y155.766 E20.41952
G1 X179.857 Y156.324 E20.44257
G1 X179.385 Y156.83 E20.46559
G1 X178.857 Y157.279 E20.48864
G1 X178.282 Y157.664 E20.51166
G1 X177.665 Y157.979 E20.5347
G1 X177.017 Y158.222 E20.55771
G1 X176.344 Y158.389 E20.58078
G1 X175.658 Y158.477 E20.60378
G1 X175.239 Y158.491 E20.61773
G1 X170.248 Y158.489 E20.78373
G1 X169.254 Y158.406 E20.8169
G1 X167.164 Y158.054 E20.88739
G1 X161.848 Y157.371 E21.06566
G1 X156.529 Y156.991 E21.24302
G1 X151.236 Y156.914 E21.41909
G1 X145.911 Y157.137 E21.59635
G1 X140.617 Y157.66 E21.77329
G1 X135.654 Y158.421 E21.94029
G1 X134.745 Y158.49 E21.97061
G1 X59.759 Y158.491 E24.46465
G1 X59.068 Y158.451 E24.48767
G1 X58.386 Y158.332 E24.5107
G1 X57.722 Y158.135 E24.53373
G1 X57.085 Y157.862 E24.55679
G1 X56.484 Y157.518 E24.57982
G1 X55.926 Y157.107 E24.60287
G1 X55.42 Y156.635 E24.62588
G1 X54.971 Y156.107 E24.64893
G1 X54.587 Y155.532 E24.67193
G1 X54.271 Y154.915 E24.69499
G1 X54.028 Y154.267 E24.71801
G1 X53.861 Y153.595 E24.74104
G1 X53.773 Y152.908 E24.76407
G1 X53.759 Y152.487 E24.77808
G1 X53.762 Y147.476 E24.94475
G1 X53.784 Y146.97 E24.9616
G1 X54.019 Y144.215 E25.05356
G1 X54.245 Y138.837 E25.23259
G1 X54.169 Y133.532 E25.40905
G1 X53.775 Y127.919 E25.5962
G1 X53.76 Y127.498 E25.61021
G1 X53.76 Y107.512 E26.27495
G1 X53.775 Y107.088 E26.28906
G1 X54.171 Y101.496 E26.47552
G1 X54.245 Y96.206 E26.65148
G1 X54.015 Y90.83 E26.83045
G1 X53.894 Y89.397 E26.87828
G1 X53.888 Y89.318 E26.88092
G1 X53.765 Y87.595 E26.93837
G1 X53.75 Y87.156 E26.95298
G1 X53.759 Y82.497 E27.10794
G1 X53.8 Y81.806 E27.13096
G1 X53.921 Y81.124 E27.154
G1 X54.119 Y80.461 E27.17702
G1 X54.393 Y79.824 E27.20008
G1 X54.738 Y79.224 E27.2231
G1 X55.15 Y78.667 E27.24614
G1 X55.623 Y78.162 E27.26916
G1 X56.152 Y77.714 E27.29221
M204 S5000
M205 X30 Y30
G0 F3600 X56.016 Y78.344
M204 S500
M205 X20 Y20
G1 F1800 X56.539 Y77.927 E27.31446
G1 X57.109 Y77.576 E27.33672
G1 X57.716 Y77.295 E27.35897
G1 X58.352 Y77.089 E27.38121
G1 X59.009 Y76.959 E27.40348
G1 X59.758 Y76.909 E27.42845
G1 X134.04 Y76.9 E29.89908
G1 X134.46 Y76.916 E29.91306
G1 X135.687 Y77.008 E29.95398
G1 X136.12 Y77.057 E29.96848
G1 X140.466 Y77.726 E30.11473
G1 X145.766 Y78.254 E30.29188
G1 X151.123 Y78.485 E30.47022
G1 X156.445 Y78.412 E30.64725
G1 X161.774 Y78.037 E30.82493
G1 X167.115 Y77.357 E31.004
G1 X169.343 Y76.985 E31.07913
G1 X170.264 Y76.909 E31.10987
G1 X175.241 Y76.909 E31.27541
G1 X175.909 Y76.949 E31.29766
G1 X176.567 Y77.068 E31.3199
G1 X177.207 Y77.265 E31.34218
G1 X177.818 Y77.537 E31.36442
G1 X178.392 Y77.88 E31.38666
G1 X178.922 Y78.289 E31.40893
G1 X179.399 Y78.758 E31.43118
G1 X179.817 Y79.28 E31.45342
G1 X180.169 Y79.849 E31.47567
G1 X180.451 Y80.456 E31.49793
G1 X180.659 Y81.092 E31.52019
G1 X180.789 Y81.748 E31.54243
G1 X180.841 Y82.509 E31.5678
G1 X180.841 Y152.491 E33.89541
G1 X180.801 Y153.159 E33.91767
G1 X180.682 Y153.817 E33.93991
G1 X180.485 Y154.457 E33.96218
G1 X180.213 Y155.068 E33.98443
G1 X179.87 Y155.642 E34.00667
G1 X179.461 Y156.172 E34.02893
G1 X178.992 Y156.649 E34.05118
G1 X178.47 Y157.067 E34.07343
G1 X177.901 Y157.419 E34.09568
G1 X177.294 Y157.701 E34.11794
G1 X176.658 Y157.909 E34.1402
G1 X176.002 Y158.039 E34.16244
G1 X175.239 Y158.091 E34.18788
G1 X170.248 Y158.089 E34.35388
G1 X169.321 Y158.011 E34.38482
G1 X167.232 Y157.66 E34.45527
G1 X161.891 Y156.973 E34.63438
G1 X156.546 Y156.592 E34.8126
G1 X151.226 Y156.513 E34.98957
G1 X145.888 Y156.737 E35.16727
G1 X140.558 Y157.264 E35.34541
G1 X135.594 Y158.025 E35.51244
G1 X134.745 Y158.09 E35.54076
G1 X59.759 Y158.091 E38.03481
G1 X59.091 Y158.051 E38.05706
G1 X58.433 Y157.932 E38.0793
G1 X57.794 Y157.735 E38.10154
G1 X57.182 Y157.463 E38.12382
G1 X56.608 Y157.12 E38.14606
G1 X56.078 Y156.711 E38.16833
G1 X55.601 Y156.242 E38.19057
G1 X55.183 Y155.72 E38.21282
G1 X54.831 Y155.151 E38.23507
G1 X54.549 Y154.544 E38.25733
G1 X54.341 Y153.908 E38.27959
G1 X54.211 Y153.252 E38.30183
G1 X54.159 Y152.488 E38.3273
G1 X54.162 Y147.477 E38.49397
G1 X54.182 Y147.004 E38.50971
G1 X54.419 Y144.22 E38.60264
G1 X54.646 Y138.847 E38.78151
G1 X54.569 Y133.516 E38.95884
G1 X54.174 Y127.891 E39.14639
G1 X54.16 Y127.498 E39.15947
G1 X54.16 Y107.512 E39.8242
G1 X54.174 Y107.116 E39.83738
G1 X54.571 Y101.512 E40.02424
G1 X54.646 Y96.194 E40.20113
G1 X54.415 Y90.803 E40.3806
G1 X54.293 Y89.363 E40.42867
G1 X54.287 Y89.29 E40.43111
G1 X54.164 Y87.567 E40.48856
G1 X54.15 Y87.157 E40.5022
G1 X54.159 Y82.498 E40.65716
G1 X54.2 Y81.83 E40.67942
G1 X54.321 Y81.172 E40.70168
G1 X54.519 Y80.533 E40.72393
G1 X54.792 Y79.923 E40.74615
G1 X55.136 Y79.349 E40.76841
G1 X55.546 Y78.82 E40.79067
G1 X56.016 Y78.344 E40.81292
M204 S5000
M205 X30 Y30
G0 F3600 X56.407 Y78.533
M204 S500
M205 X20 Y20
G1 F1800 X56.925 Y78.149 E40.83437
G1 X57.486 Y77.832 E40.8558
G1 X58.082 Y77.587 E40.87723
G1 X58.704 Y77.417 E40.89868
G1 X59.342 Y77.326 E40.92011
G1 X59.758 Y77.309 E40.93396
G1 X134.04 Y77.3 E43.40459
G1 X134.43 Y77.315 E43.41757
G1 X135.657 Y77.407 E43.4585
G1 X136.059 Y77.453 E43.47195
G1 X140.401 Y78.121 E43.61807
G1 X145.747 Y78.654 E43.79676
G1 X151.093 Y78.884 E43.97473
G1 X156.479 Y78.811 E44.15389
G1 X161.818 Y78.435 E44.3319
G1 X167.174 Y77.753 E44.51148
G1 X169.408 Y77.38 E44.58681
G1 X170.264 Y77.309 E44.61538
G1 X175.241 Y77.309 E44.78092
G1 X175.884 Y77.349 E44.80235
G1 X176.518 Y77.468 E44.8238
G1 X177.132 Y77.665 E44.84525
G1 X177.717 Y77.936 E44.86669
G1 X178.264 Y78.278 E44.88815
G1 X178.764 Y78.684 E44.90957
G1 X179.21 Y79.149 E44.931
G1 X179.595 Y79.666 E44.95244
G1 X179.914 Y80.227 E44.9739
G1 X180.16 Y80.823 E44.99535
G1 X180.331 Y81.444 E45.01677
G1 X180.423 Y82.082 E45.03821
G1 X180.441 Y82.509 E45.05243
G1 X180.441 Y152.491 E47.38004
G1 X180.401 Y153.134 E47.40147
G1 X180.282 Y153.768 E47.42292
G1 X180.085 Y154.382 E47.44437
G1 X179.814 Y154.967 E47.46581
G1 X179.472 Y155.514 E47.48727
G1 X179.066 Y156.014 E47.50869
G1 X178.601 Y156.46 E47.53012
G1 X178.084 Y156.845 E47.55156
G1 X177.523 Y157.164 E47.57302
G1 X176.927 Y157.41 E47.59447
G1 X176.306 Y157.581 E47.61589
G1 X175.668 Y157.673 E47.63733
G1 X175.239 Y157.691 E47.65161
G1 X170.248 Y157.689 E47.81761
G1 X169.387 Y157.617 E47.84635
G1 X167.296 Y157.265 E47.91688
G1 X161.919 Y156.574 E48.09719
G1 X156.562 Y156.192 E48.27581
G1 X151.215 Y156.113 E48.45368
G1 X145.868 Y156.337 E48.63167
G1 X140.512 Y156.866 E48.81068
G1 X135.533 Y157.63 E48.97822
G1 X134.745 Y157.69 E49.00451
G1 X59.759 Y157.691 E51.49855
G1 X59.116 Y157.651 E51.51998
G1 X58.482 Y157.532 E51.54143
G1 X57.868 Y157.335 E51.56288
G1 X57.283 Y157.064 E51.58432
G1 X56.737 Y156.722 E51.60575
G1 X56.236 Y156.316 E51.6272
G1 X55.79 Y155.851 E51.64863
G1 X55.405 Y155.334 E51.67007
G1 X55.086 Y154.773 E51.69154
G1 X54.84 Y154.177 E51.71298
G1 X54.669 Y153.556 E51.7344
G1 X54.577 Y152.918 E51.75584
G1 X54.559 Y152.488 E51.77016
G1 X54.562 Y147.477 E51.93682
G1 X54.581 Y147.038 E51.95144
G1 X54.819 Y144.248 E52.04457
G1 X55.046 Y138.858 E52.224
G1 X54.969 Y133.5 E52.40223
G1 X54.573 Y127.863 E52.59018
G1 X54.56 Y127.498 E52.60233
G1 X54.56 Y107.512 E53.26706
G1 X54.573 Y107.144 E53.27931
G1 X54.971 Y101.528 E53.46657
G1 X55.046 Y96.182 E53.64439
G1 X54.815 Y90.8 E53.82357
G1 X54.691 Y89.329 E53.87266
G1 X54.686 Y89.261 E53.87493
G1 X54.563 Y87.538 E53.93239
G1 X54.55 Y87.158 E53.94503
G1 X54.559 Y82.499 E54.09999
G1 X54.6 Y81.856 E54.12142
G1 X54.721 Y81.222 E54.14289
G1 X54.919 Y80.609 E54.16431
G1 X55.191 Y80.024 E54.18577
G1 X55.534 Y79.478 E54.20722
G1 X55.941 Y78.979 E54.22863
G1 X56.407 Y78.533 E54.25009
M204 S5000
M205 X30 Y30
G1 F2400 E49.25009
;MESH:NFC, LEDs, Speaker V2.stl
G0 F3600 X60.364 Y81.835
G0 X60.364 Y83.114
G0 X75.078 Y97.827
G0 X75.148 Y97.897
M204 S500
M205 X20 Y20
;TYPE:WALL-INNER
G1 F2400 E54.25009
G1 F1800 X75.148 Y137.103 E55.55409
G1 X116.353 Y137.103 E56.92457
G1 X116.353 Y97.897 E58.22857
G1 X75.148 Y97.897 E59.59905
M204 S5000
M205 X30 Y30
G0 F3600 X75.078 Y97.827
G0 X63.078 Y133.828
G0 X63.148 Y133.898
M204 S500
M205 X20 Y20
G1 F1800 X63.148 Y139.103 E59.77217
G1 X72.353 Y139.103 E60.07833
G1 X72.353 Y133.898 E60.25145
G1 X63.148 Y133.898 E60.55761
M204 S5000
M205 X30 Y30
G0 F3600 X63.078 Y133.828
G0 X72.381 Y133.87
G0 X75.12 Y137.131
G0 X170.923 Y149.828
G0 X170.853 Y149.898
M204 S500
M205 X20 Y20
G1 F1800 X134.148 Y149.898 E61.77842
G1 X134.148 Y151.9 E61.84501
G1 X60.35 Y151.9 E64.29954
G1 X60.35 Y148.103 E64.42583
G1 X62.352 Y148.103 E64.49241
G1 X62.352 Y126.898 E65.1977
G1 X60.35 Y126.898 E65.26428
G1 X60.35 Y108.102 E65.88944
G1 X62.152 Y108.102 E65.94937
G1 X62.352 Y108.102 E65.95603
G1 X62.352 Y107.902 E65.96033
G1 X62.351 Y86.898 E66.65893
G1 X60.35 Y86.898 E66.72548
G1 X60.35 Y83.1 E66.8518
G1 X134.148 Y83.1 E69.30634
G1 X134.148 Y85.102 E69.37292
G1 X170.853 Y85.102 E70.59374
G1 X170.853 Y83.1 E70.66032
G1 X174.65 Y83.1 E70.78661
G1 X174.65 Y151.9 E73.07491
G1 X170.853 Y151.9 E73.2012
G1 X170.853 Y149.898 E73.26778
M204 S5000
M205 X30 Y30
G0 F3600 X170.923 Y149.828
G0 X171.954 Y117.5
G0 X171.854 Y117.5
M204 S500
M205 X20 Y20
G1 F1800 X171.747 Y115.477 E73.33516
G1 X171.431 Y113.476 E73.40254
G1 X170.906 Y111.519 E73.46993
G1 X170.18 Y109.629 E73.53727
G1 X169.26 Y107.824 E73.60466
G1 X168.157 Y106.125 E73.67203
G1 X166.883 Y104.55 E73.73941
G1 X165.45 Y103.117 E73.80681
G1 X163.875 Y101.843 E73.87419
G1 X162.176 Y100.74 E73.94156
G1 X160.371 Y99.82 E74.00894
G1 X158.481 Y99.094 E74.07628
G1 X156.524 Y98.569 E74.14368
G1 X154.523 Y98.253 E74.21105
G1 X152.5 Y98.147 E74.27843
G1 X150.477 Y98.253 E74.34581
G1 X148.476 Y98.569 E74.41319
G1 X146.519 Y99.094 E74.48058
G1 X144.629 Y99.82 E74.54792
G1 X142.824 Y100.74 E74.6153
G1 X141.125 Y101.843 E74.68267
G1 X139.55 Y103.117 E74.75005
G1 X138.117 Y104.55 E74.81746
G1 X136.843 Y106.125 E74.88483
G1 X135.74 Y107.824 E74.95221
G1 X134.82 Y109.629 E75.01959
G1 X134.094 Y111.519 E75.08693
G1 X133.569 Y113.476 E75.15432
G1 X133.253 Y115.477 E75.2217
G1 X133.147 Y117.5 E75.28908
G1 X133.253 Y119.523 E75.35645
G1 X133.569 Y121.524 E75.42383
G1 X134.094 Y123.481 E75.49122
G1 X134.82 Y125.371 E75.55856
G1 X135.74 Y127.176 E75.62595
G1 X136.843 Y128.875 E75.69332
G1 X138.117 Y130.45 E75.7607
G1 X139.55 Y131.883 E75.8281
G1 X141.125 Y133.157 E75.89548
G1 X142.824 Y134.26 E75.96285
G1 X144.629 Y135.18 E76.03023
G1 X146.519 Y135.906 E76.09757
G1 X148.476 Y136.431 E76.16496
G1 X150.477 Y136.747 E76.23234
G1 X152.5 Y136.853 E76.29972
G1 X154.523 Y136.747 E76.3671
G1 X156.524 Y136.431 E76.43448
G1 X158.481 Y135.906 E76.50187
G1 X160.371 Y135.18 E76.56921
G1 X162.176 Y134.26 E76.63659
G1 X163.875 Y133.157 E76.70396
